X:1
T:Title
L:1/8
M:4/4
I:linebreak $
K:D
V:1 treble nm="Voice"
V:1
"D" d2 fd"G" B2 dB |"D" PA2 FA DAFA | d2 de fdef |"G" gfed"A" cABc |"D" ddfd"G" BBdB | %5
"D" PA2 FA DAFA | d2 de fdef |1"G" ge"A"ce"D" d2 (3ABc :|2"G" ge"A"ce"D" d2 FA |:"D" ABAG FDFD | %10
 A,DFD"A" CDEF |"G" GAGF"A" EDCE |"D" AGFE F2 FG |"D" ABAG FDFD | A,DFD"A" CDEF | %15
"G" GAGF"A" EDCE |1"D" AGFE D2 FG :|2"D" AGFE D2 (3ABc |] %18
